gh-pages/assets/img/logo-light.svg

<?xml version="1.0" encoding="UTF-8"?>
<svg width="496px" height="148px" viewBox="0 0 496 148" version="1.1" xmlns="http://www.w3.org/2000/svg" xmlns:xlink="http://www.w3.org/1999/xlink">
    <title>Group 6</title>
    <g id="Page-1" stroke="none" stroke-width="1" fill="none" fill-rule="evenodd">
        <g id="Desktop-HD" transform="translate(-68.000000, -665.000000)" fill-rule="nonzero">
            <g id="Group-9" transform="translate(25.405063, 654.000000)">
                <g id="Group-6" transform="translate(43.000000, 11.000000)">
                    <path d="M168.594937,119 L168.594937,99.05 L117.294937,99.05 L117.294937,15.95 L95.2449367,15.95 L95.2449367,119 L168.594937,119 Z M200.094937,119 L200.094937,52.4 L249.894937,119 L271.944937,119 L271.944937,15.95 L249.894937,15.95 L249.894937,82.55 L200.094937,15.95 L178.044937,15.95 L178.044937,119 L200.094937,119 Z M321.494937,120.8 C328.194937,120.8 334.269937,119.075 339.719937,115.625 C345.169937,112.175 349.444937,107.35 352.544937,101.15 C355.644937,94.95 357.194937,87.95 357.194937,80.15 C357.194937,72.35 355.644937,65.375 352.544937,59.225 C349.444937,53.075 345.169937,48.275 339.719937,44.825 C334.269937,41.375 328.194937,39.65 321.494937,39.65 C315.394937,39.65 309.919937,41.075 305.069937,43.925 C300.219937,46.775 296.294937,50.8 293.294937,56 L293.294937,56 L293.294937,14.15 L282.044937,14.15 L282.044937,119 L293.294937,119 L293.294937,104.45 C296.294937,109.65 300.219937,113.675 305.069937,116.525 C309.919937,119.375 315.394937,120.8 321.494937,120.8 Z M319.394937,110.75 C314.394937,110.75 309.894937,109.45 305.894937,106.85 C301.894937,104.25 298.794937,100.625 296.594937,95.975 C294.394937,91.325 293.294937,86.05 293.294937,80.15 C293.294937,74.25 294.394937,69 296.594937,64.4 C298.794937,59.8 301.894937,56.2 305.894937,53.6 C309.894937,51 314.394937,49.7 319.394937,49.7 C324.394937,49.7 328.869937,51 332.819937,53.6 C336.769937,56.2 339.844937,59.8 342.044937,64.4 C344.244937,69 345.344937,74.25 345.344937,80.15 C345.344937,86.05 344.244937,91.325 342.044937,95.975 C339.844937,100.625 336.769937,104.25 332.819937,106.85 C328.869937,109.45 324.394937,110.75 319.394937,110.75 Z M368.844937,27.35 C370.844937,27.35 372.569937,26.6 374.019937,25.1 C375.469937,23.6 376.194937,21.85 376.194937,19.85 C376.194937,17.85 375.469937,16.125 374.019937,14.675 C372.569937,13.225 370.844937,12.5 368.844937,12.5 C366.744937,12.5 364.969937,13.225 363.519937,14.675 C362.069937,16.125 361.344937,17.85 361.344937,19.85 C361.344937,21.85 362.069937,23.6 363.519937,25.1 C364.969937,26.6 366.744937,27.35 368.844937,27.35 Z M374.394937,119 L374.394937,41.45 L363.144937,41.45 L363.144937,119 L374.394937,119 Z M415.494937,120.8 C420.894937,120.8 425.694937,119.15 429.894937,115.85 L429.894937,115.85 L424.344937,107.6 C423.444937,108.5 422.294937,109.25 420.894937,109.85 C419.494937,110.45 417.944937,110.75 416.244937,110.75 C413.944937,110.75 411.969937,109.825 410.319937,107.975 C408.669937,106.125 407.844937,103.8 407.844937,101 L407.844937,101 L407.844937,51.5 L426.894937,51.5 L426.894937,41.45 L407.844937,41.45 L407.844937,20.15 L396.594937,20.15 L396.594937,41.45 L384.444937,41.45 L384.444937,51.5 L396.594937,51.5 L396.594937,101 C396.594937,106.8 398.369937,111.55 401.919937,115.25 C405.469937,118.95 409.994937,120.8 415.494937,120.8 Z M466.694937,120.8 C474.894937,120.8 481.669937,118.65 487.019937,114.35 C492.369937,110.05 495.044937,104.4 495.044937,97.4 C495.044937,92.8 493.894937,89.075 491.594937,86.225 C489.294937,83.375 486.444937,81.15 483.044937,79.55 C479.644937,77.95 475.194937,76.3 469.694937,74.6 C464.094937,72.8 459.994937,71.35 457.394937,70.25 C454.794937,69.15 452.844937,67.9 451.544937,66.5 C450.244937,65.1 449.594937,63.3 449.594937,61.1 C449.594937,57.5 451.094937,54.7 454.094937,52.7 C457.094937,50.7 460.894937,49.7 465.494937,49.7 C472.694937,49.7 480.144937,52.15 487.844937,57.05 L487.844937,57.05 L493.244937,48.35 C489.044937,45.65 484.544937,43.525 479.744937,41.975 C474.944937,40.425 470.194937,39.65 465.494937,39.65 C457.594937,39.65 451.094937,41.725 445.994937,45.875 C440.894937,50.025 438.344937,55.55 438.344937,62.45 C438.344937,67.95 440.294937,72.325 444.194937,75.575 C448.094937,78.825 454.794937,81.8 464.294937,84.5 C468.794937,85.8 472.319937,86.95 474.869937,87.95 C477.419937,88.95 479.544937,90.325 481.244937,92.075 C482.944937,93.825 483.794937,96 483.794937,98.6 C483.794937,102.3 482.219937,105.25 479.069937,107.45 C475.919937,109.65 471.794937,110.75 466.694937,110.75 C458.094937,110.75 449.344937,107.5 440.444937,101 L440.444937,101 L434.594937,109.25 C439.194937,112.95 444.319937,115.8 449.969937,117.8 C455.619937,119.8 461.194937,120.8 466.694937,120.8 Z" id="LNbits" fill="#FFFFFF"></path>
                    <polygon id="Path" fill="#FF1EE6" points="31.7629055 0 7.10760662 78.8585043 26.9789129 78.8585043 2.69673524e-13 148 74.8401889 57.3517272 43.9349963 57.3517272 84.3037975 8.34401992e-14"></polygon>
                </g>
            </g>
        </g>
    </g>
</svg>

<svg xmlns="http://www.w3.org/2000/svg" width="889.574" height="148" viewBox="0 0 889.574 148">
  <style>
    .lnbitsbox-wordmark { fill: currentColor; }
    .lnbitsbox-accent { fill: #ff1ee6; }
    .lnbitsbox-outline {
      fill: none;
      stroke: currentColor;
      stroke-width: 7;
    }
  </style>
  <g id="Group_2" data-name="Group 2" transform="translate(-571 -302)">
    <g id="Component_1_1" data-name="Component 1 – 1" transform="translate(1076.114 315.614)">
      <path id="Path_9" data-name="Path 9" class="lnbitsbox-accent" d="M13.114,0h44.24c18.8,0,30.178-10.9,30.178-28.44,0-12.482-9.322-24.174-20.54-25.912,9.48-1.9,18.486-10.9,18.486-24.174,0-16.59-11.376-26.86-29.072-26.86H13.114ZM22.12-58.144V-97.17H55.3c13.588,0,20.7,8.848,20.7,19.592,0,10.9-7.11,19.434-20.7,19.434Zm0,49.928V-49.928H55.932c14.694,0,22.12,10.112,22.12,20.856,0,12.8-8.216,20.856-22.12,20.856ZM132.72,1.9c22.594,0,36.814-17.854,36.814-40.132S155.314-78.21,132.72-78.21c-22.278,0-36.656,17.7-36.656,39.974S110.442,1.9,132.72,1.9Zm0-7.426c-17.7,0-27.808-15.642-27.808-32.706,0-16.906,10.112-32.548,27.808-32.548,18.012,0,27.966,15.642,27.966,32.548C160.686-21.172,150.732-5.53,132.72-5.53ZM226.1,0h9.8L205.716-39.184l28.44-37.13h-9.8L200.818-44.872l-23.7-31.442h-9.8l28.44,37.13L165.584,0h9.8l25.438-33.654Z" transform="translate(-13.114 105.386)"/>
    </g>
    <g id="Page-1" transform="translate(570.595 302)">
      <g id="Desktop-HD" transform="translate(-68 -665)">
        <g id="Group-9" transform="translate(25.405 654)">
          <g id="Group-6" transform="translate(43 11)">
            <path id="LNbits" class="lnbitsbox-wordmark" d="M168.595,119V99.05h-51.3V15.95H95.245V119Zm31.5,0V52.4l49.8,66.6h22.05V15.95h-22.05v66.6l-49.8-66.6h-22.05V119Zm121.4,1.8a33.37,33.37,0,0,0,18.225-5.175,35.457,35.457,0,0,0,12.825-14.475,46.313,46.313,0,0,0,4.65-21,45.845,45.845,0,0,0-4.65-20.925,35.564,35.564,0,0,0-12.825-14.4,33.37,33.37,0,0,0-18.225-5.175,31.808,31.808,0,0,0-16.425,4.275A32.524,32.524,0,0,0,293.295,56h0V14.15h-11.25V119h11.25V104.45a32.524,32.524,0,0,0,11.775,12.075A31.808,31.808,0,0,0,321.495,120.8Zm-2.1-10.05a24.232,24.232,0,0,1-13.5-3.9,25.771,25.771,0,0,1-9.3-10.875,36.567,36.567,0,0,1-3.3-15.825,36.073,36.073,0,0,1,3.3-15.75,25.861,25.861,0,0,1,9.3-10.8,24.232,24.232,0,0,1,13.5-3.9,23.871,23.871,0,0,1,13.425,3.9,26.056,26.056,0,0,1,9.225,10.8,36.073,36.073,0,0,1,3.3,15.75,36.567,36.567,0,0,1-3.3,15.825,25.965,25.965,0,0,1-9.225,10.875A23.871,23.871,0,0,1,319.395,110.75Zm49.45-83.4a6.953,6.953,0,0,0,5.175-2.25,7.317,7.317,0,0,0,2.175-5.25,7.068,7.068,0,0,0-2.175-5.175,7.068,7.068,0,0,0-5.175-2.175,7.242,7.242,0,0,0-5.325,2.175,7.068,7.068,0,0,0-2.175,5.175,7.317,7.317,0,0,0,2.175,5.25A7.121,7.121,0,0,0,368.845,27.35Zm5.55,91.65V41.45h-11.25V119Zm41.1,1.8a22.672,22.672,0,0,0,14.4-4.95h0l-5.55-8.25a10.859,10.859,0,0,1-3.45,2.25,11.686,11.686,0,0,1-4.65.9,7.676,7.676,0,0,1-5.925-2.775A10.09,10.09,0,0,1,407.845,101h0V51.5h19.05V41.45h-19.05V20.15h-11.25v21.3h-12.15V51.5h12.15V101q0,8.7,5.325,14.25A18,18,0,0,0,415.495,120.8Zm51.2,0q12.3,0,20.325-6.45a20.692,20.692,0,0,0,8.025-16.95q0-6.9-3.45-11.175a23.905,23.905,0,0,0-8.55-6.675,105.135,105.135,0,0,0-13.35-4.95q-8.4-2.7-12.3-4.35a16.881,16.881,0,0,1-5.85-3.75,7.621,7.621,0,0,1-1.95-5.4,9.54,9.54,0,0,1,4.5-8.4,20.14,20.14,0,0,1,11.4-3q10.8,0,22.35,7.35h0l5.4-8.7a57.567,57.567,0,0,0-13.5-6.375,46.177,46.177,0,0,0-14.25-2.325q-11.85,0-19.5,6.225t-7.65,16.575q0,8.25,5.85,13.125t20.1,8.925q6.75,1.95,10.575,3.45a17.8,17.8,0,0,1,6.375,4.125,9,9,0,0,1,2.55,6.525,10.278,10.278,0,0,1-4.725,8.85q-4.725,3.3-12.375,3.3-12.9,0-26.25-9.75h0l-5.85,8.25a52.058,52.058,0,0,0,15.375,8.55A49.9,49.9,0,0,0,466.695,120.8Z"/>
            <path id="Path" class="lnbitsbox-accent" d="M31.763,0,7.108,78.859H26.979L0,148,74.84,57.352H43.935L84.3,0Z"/>
          </g>
        </g>
      </g>
    </g>
    <g id="Group_1" data-name="Group 1" transform="translate(-47.68 169.961)">
      <path id="Path_6" data-name="Path 6" class="lnbitsbox-outline" d="M1621,369.547v43.406" transform="translate(-186.787 -168.663)"/>
      <path id="Path_3" data-name="Path 3" class="lnbitsbox-outline" d="M1363.68,243.008V166.638l69.435-29.446,71.639,29.446v76.371l-71.639,29.879Z" stroke-linecap="round" stroke-linejoin="round"/>
      <path id="Path_4" data-name="Path 4" class="lnbitsbox-outline" d="M1487.969,311.491V266.14l36.382-16.152,36.113,16.152v45.351l-36.113,15.032Z" transform="translate(-90.219 -81.877)" stroke-linejoin="round"/>
      <path id="Path_5" data-name="Path 5" class="lnbitsbox-outline" d="M1487.936,307.949l37.177,16.462,35.769-16.462" transform="translate(-90.195 -123.95)"/>
      <path id="Path_7" data-name="Path 7" class="lnbitsbox-outline" d="M1369.582,491.134l32.452-12.157" transform="translate(-4.284 -249.143)"/>
      <path id="Path_8" data-name="Path 8" class="lnbitsbox-outline" d="M1756.984,478.977l33.66,13.047" transform="translate(-286.643 -249.143)"/>
    </g>
  </g>
</svg>
